svgs/solid/republican.svg

<svg xmlns="http://www.w3.org/2000/svg" viewBox="0 0 640 512"><!--! Font Awesome Free 7.2.0 by @fontawesome - https://fontawesome.com License - https://fontawesome.com/license/free (Icons: CC BY 4.0, Fonts: SIL OFL 1.1, Code: MIT License) Copyright 2026 Fonticons, Inc. --><path fill="currentColor" d="M0 192C0 103.6 71.6 32 160 32l224 0c88.4 0 160 71.6 160 160l0 64-544 0 0-64zm152-32a24 24 0 1 0 -48 0 24 24 0 1 0 48 0zm232 24a24 24 0 1 0 0-48 24 24 0 1 0 0 48zM280 160a24 24 0 1 0 -48 0 24 24 0 1 0 48 0zM128 288l416 0 0 112c0 8.8 7.2 16 16 16s16-7.2 16-16l0-48c0-17.7 14.3-32 32-32s32 14.3 32 32l0 48c0 44.2-35.8 80-80 80s-80-35.8-80-80l0-48-32 0 0 96c0 17.7-14.3 32-32 32l-64 0c-17.7 0-32-14.3-32-32l0-64-192 0 0 64c0 17.7-14.3 32-32 32l-64 0c-17.7 0-32-14.3-32-32l0-160 128 0z"/></svg>

<svg xmlns="http://www.w3.org/2000/svg" viewBox="0 0 640 512"><!--! Font Awesome Free 6.5.2 by @fontawesome - https://fontawesome.com License - https://fontawesome.com/license/free (Icons: CC BY 4.0, Fonts: SIL OFL 1.1, Code: MIT License) Copyright 2024 Fonticons, Inc. --><path d="M0 192C0 103.6 71.6 32 160 32H384c88.4 0 160 71.6 160 160v64H0V192zm415.9-64c-2.4 0-4.7 1.3-5.7 3.4l-12.6 24.6-28.2 4c-2.4 .3-4.4 2-5.2 4.2s-.1 4.7 1.6 6.3l20.4 19.2-4.8 27.1c-.4 2.3 .6 4.7 2.5 6s4.6 1.6 6.7 .5l25.2-12.8 25.2 12.8c2.2 1.1 4.8 .9 6.7-.5s3-3.7 2.5-6l-4.8-27.1L466 170.5c1.7-1.6 2.4-4.1 1.6-6.3s-2.8-3.9-5.2-4.2l-28.2-4-12.6-24.6c-1.1-2.1-3.3-3.4-5.7-3.4zm-138.3 3.4c-1.1-2.1-3.3-3.4-5.7-3.4s-4.7 1.3-5.7 3.4l-12.6 24.6-28.2 4c-2.4 .3-4.4 2-5.2 4.2s-.1 4.7 1.6 6.3l20.4 19.2-4.8 27.1c-.4 2.3 .6 4.7 2.5 6s4.6 1.6 6.7 .5l25.2-12.8 25.2 12.8c2.2 1.1 4.8 .9 6.7-.5s3-3.7 2.5-6l-4.8-27.1L322 170.5c1.7-1.6 2.4-4.1 1.6-6.3s-2.8-3.9-5.2-4.2l-28.2-4-12.6-24.6zM127.9 128c-2.4 0-4.7 1.3-5.7 3.4l-12.6 24.6-28.2 4c-2.4 .3-4.4 2-5.2 4.2s-.1 4.7 1.6 6.3l20.4 19.2-4.8 27.1c-.4 2.3 .6 4.7 2.5 6s4.6 1.6 6.7 .5l25.2-12.8 25.2 12.8c2.2 1.1 4.8 .9 6.7-.5s3-3.7 2.5-6l-4.8-27.1L178 170.5c1.7-1.6 2.4-4.1 1.6-6.3s-2.8-3.9-5.2-4.2l-28.2-4-12.6-24.6c-1.1-2.1-3.3-3.4-5.7-3.4zm.1 160H320h96 32 64 32v32 80c0 8.8 7.2 16 16 16s16-7.2 16-16V352c0-17.7 14.3-32 32-32s32 14.3 32 32v48c0 44.2-35.8 80-80 80s-80-35.8-80-80V352H448v32 64c0 17.7-14.3 32-32 32H352c-17.7 0-32-14.3-32-32V384H128v64c0 17.7-14.3 32-32 32H32c-17.7 0-32-14.3-32-32V384 288H128z"/></svg>
